X:15107
T:Scottish fr K. - schottisch/schottische/scottish
C:Stephan Steiner
Z:abc transcription Simon Wascher
N:please mail errors to: simon.wascher@chello.at
M:2/4
L:1/16
K:Dm
FAGF D2DG-|GBAG DFAB|c2BA GABG-|GAGF E3E|
FAGF D2DG-|GBAG D2dc-|c2BA GAGE-|EFGFD4:|
|:fdAd e2ec|dBFB d3c|BcBA BGAB|cBG^G A2fg|
fgfg e2ed|dedc d3d-|1dB=GB d3B|BAfe d3e:|2dBGB dBGB|Acecd4:|
